src/main/webapp/scripts/pdfjs/v54530/web/images/toolbarButton-zoomOut.svg

<svg fill="none" height="16" viewBox="0 0 16 16" width="16" xmlns="http://www.w3.org/2000/svg"><path d="m13.375 9.25c.1658 0 .3247-.06585.4419-.18306.1173-.11721.1831-.27618.1831-.44194s-.0658-.32473-.1831-.44194c-.1172-.11721-.2761-.18306-.4419-.18306h-10.75c-.16576 0-.32473.06585-.44194.18306s-.18306.27618-.18306.44194.06585.32473.18306.44194.27618.18306.44194.18306z" fill="#000"/></svg>

<svg width="16" height="16" viewBox="0 0 16 16" fill="none" xmlns="http://www.w3.org/2000/svg">
<path d="M13.375 9.25C13.5408 9.25 13.6997 9.18415 13.8169 9.06694C13.9342 8.94973 14 8.79076 14 8.625C14 8.45924 13.9342 8.30027 13.8169 8.18306C13.6997 8.06585 13.5408 8 13.375 8H2.625C2.45924 8 2.30027 8.06585 2.18306 8.18306C2.06585 8.30027 2 8.45924 2 8.625C2 8.79076 2.06585 8.94973 2.18306 9.06694C2.30027 9.18415 2.45924 9.25 2.625 9.25H13.375Z" fill="black"/>
</svg>
